svgs/sharp-light/shop.svg

<svg xmlns="http://www.w3.org/2000/svg" viewBox="0 0 640 512"><!--! Font Awesome Pro 6.6.0 by @fontawesome - https://fontawesome.com License - https://fontawesome.com/license (Commercial License) Copyright 2024 Fonticons, Inc. --><path d="M608 224l32 0 0-32 0-16L544 0 96 0 0 176l0 16 0 32 32 0 32 0 0 272 0 16 16 0 288 0 16 0 0-16 0-224 0-16-32 0 0 16 0 80L96 352l0-128 448 0 0 272 0 16 32 0 0-16 0-272 32 0zm-32-32l-32 0L96 192l-32 0-32 0 0-7.8L115 32l410 0 83 152.2 0 7.8-32 0zM96 480l0-96 256 0 0 96L96 480z"/></svg>

<svg xmlns="http://www.w3.org/2000/svg" viewBox="0 0 640 512"><!--! Font Awesome Pro 6.4.0 by @fontawesome - https://fontawesome.com License - https://fontawesome.com/license (Commercial License) Copyright 2023 Fonticons, Inc. --><path d="M608 224h32V192 176L544 0H96L0 176v16 32H32 64V496v16H80 368h16V496 272 256H352v16 80H96V224H544V496v16h32V496 224h32zm-32-32H544 96 64 32v-7.8L115 32H525l83 152.2V192H576zM96 480V384H352v96H96z"/></svg>
